X:1
T:Title
%%score { ( 1 4 ) | ( 2 3 ) }
L:1/8
M:4/4
K:F
V:1 treble nm="Grand Piano"
V:4 treble 
V:2 bass 
V:3 bass 
V:1
 z4 z2[Q:1/4=100] F>G | A2 A>G F2 C2 | D2 [DF]2 F2 F>G | A2 [GA]>[GA] [FA]2 [DF]>F | %4
 [=B,DG]2 [B,DF]2 [CEG]2 [CEA]>[_B,EG] | [A,F]2 [CEA]>[B,EG] [A,CF]2[K:bass] [A,C]2 | %6
 [F,B,D]2[K:treble] [DF]2 [DF]2 [Fd]>[Fd] | [Fc]2 [A,F]>[=B,FG] [CFA]2 [A,F]2 | [B,EG]2 [A,F]6 | %9
 [EB]2 [EA]>[EG] [_E^F]2 [=EG]2 | z4 c4 | [^Fc]2 [FB]>[FA] [FB]2 [FA]2 | G8 | %13
 [DF]2 [^CE]>[DF] [CG]2 [DF]2 |[M:9/8] [Fc]2 [G^c]- [Gc] [^Fd]2- [Fd] [DF=c]2 | %15
[M:4/4] [DGB]2 [B,D][=B,DF] .[CFA]2 [_B,EG]2[Q:1/4=98][Q:1/4=97][Q:1/4=95][Q:1/4=94][Q:1/4=92][Q:1/4=91][Q:1/4=89][Q:1/4=88][Q:1/4=86][Q:1/4=84][Q:1/4=83][Q:1/4=81][Q:1/4=80][Q:1/4=78][Q:1/4=77] | %16
[M:3/4] [A,F]6 |] %17
V:2
 z4 z2 [F,A,C]>[F,B,C] | [F,CF]2 [F,CF]>[F,B,F] [F,A,C]2 [F,A,]2 | %2
 [B,,F,B,]2 [B,,B,]2 [F,A,C]2 [F,A,]>[F,B,F] | [F,CF]2 [E,^C]>[E,C] [D,D]2 z z/ D/ | %4
 G,2 G,2 C,2 C,>C, | F,2 C,>C, F,2 F,2 | B,,2 [B,,B,]2 [B,,B,]2 [=B,,_A,]>[B,,A,] | %7
 [C,A,]2 D,>^C, =C,2 C,2 | C,2 F,6 | [C,G,]2 [C,A,]>[C,B,] [C,A,]2 [C,B,]2 | %10
 [F,=B,F] [F,CF]3 [A,F]4 | [D,A,]2 [D,D]>[D,C] [D,D]2 [D,C]2 | [G,B,]8 | %13
 [B,,B,]2 [B,,G,]>[B,,F,] [B,,B,]2 [B,,B,]2 |[M:9/8] A,2- [_E,A,]- [E,A,] [D,A,]2- [D,A,] D,2 | %15
[M:4/4] G,2 G,G, z D C,2 |[M:3/4] F,6 |] %17
V:3
 x8 | x8 | x8 | z4 z2 [D,A,]2 | x8 | x8 | x8 | x8 | x8 | x8 | z4 F,2 z2 | x8 | x8 | x8 | %14
[M:9/8] .F,3 z3 z3 |[M:4/4] z4 C,2 z2 |[M:3/4] x6 |] %17
V:4
 x8 | x8 | x8 | x8 | x8 | x6[K:bass] x2 | x2[K:treble] x6 | x8 | x8 | x8 | _A =A3 z2 _E,2 | x8 | %12
 z4 D4 | x8 |[M:9/8] x9 |[M:4/4] x8 |[M:3/4] x6 |] %17

